symbols/web/21mp/materialsymbolssharp/21mp_wght300gradN25_20px.svg

<svg xmlns="http://www.w3.org/2000/svg" height="20" width="20"><path d="M6.458 9.458h3.48V8.5h-2.5V7.479h2.5V4.833h-3.48v.959h2.521v1.02H6.458Zm5.75 0h.959V4.833h-2.229v.959h1.27Zm-9.146 7.48V3.062h13.876v13.876Zm1.25-1.25h11.376V4.312H4.312Zm.938-.542h.958v-3.667h1.084v2.459h.958v-2.459h1.083v3.667h.959v-4.625H5.25Zm6.062 0h.959v-1.208h2.479v-3.417h-3.438Zm.959-3.667h1.521v1.479h-1.521ZM4.312 4.312v11.376Z"/></svg>

<svg xmlns="http://www.w3.org/2000/svg" height="20" width="20"><path d="M6.458 9.458H9.938V8.5H7.438V7.479H9.938V4.833H6.458V5.792H8.979V6.812H6.458ZM12.208 9.458H13.167V4.833H10.938V5.792H12.208ZM3.062 16.938V3.062H16.938V16.938ZM4.312 15.688H15.688V4.312H4.312ZM5.25 15.146H6.208V11.479H7.292V13.938H8.25V11.479H9.333V15.146H10.292V10.521H5.25ZM11.312 15.146H12.271V13.938H14.75V10.521H11.312ZM12.271 11.479H13.792V12.958H12.271ZM4.312 4.312V15.688Z"/></svg>
